flaticon/programming-line/adaptive-layout.svg

<svg xmlns="http://www.w3.org/2000/svg" width="32" height="32" viewBox="0 0 24 24">
    <path d="M 22.894531 1.128906 L 1.105469 1.128906 C 0.496094 1.128906 0 1.621094 0 2.230469 L 0 16.507812 C 0 17.117188 0.496094 17.613281 1.105469 17.613281 L 8.527344 17.613281 L 7.976562 19.539062 L 6.363281 19.539062 C 6.167969 19.539062 6.011719 19.695312 6.011719 19.890625 C 6.011719 20.085938 6.167969 20.242188 6.363281 20.242188 L 12.75 20.242188 C 12.945312 20.242188 13.105469 20.085938 13.105469 19.890625 C 13.105469 19.695312 12.945312 19.539062 12.75 19.539062 L 8.710938 19.539062 L 9.261719 17.613281 L 12.75 17.613281 C 12.945312 17.613281 13.105469 17.453125 13.105469 17.261719 C 13.105469 17.066406 12.945312 16.90625 12.75 16.90625 L 1.105469 16.90625 C 0.882812 16.90625 0.703125 16.730469 0.703125 16.507812 L 0.703125 2.230469 C 0.703125 2.011719 0.882812 1.832031 1.105469 1.832031 L 22.894531 1.832031 C 23.117188 1.832031 23.296875 2.011719 23.296875 2.230469 L 23.296875 16.507812 C 23.296875 16.703125 23.453125 16.859375 23.648438 16.859375 C 23.84375 16.859375 24 16.703125 24 16.507812 L 24 2.230469 C 24 1.621094 23.503906 1.128906 22.894531 1.128906 Z M 22.894531 1.128906"/>
    <path d="M 22.144531 2.628906 L 1.855469 2.628906 C 1.660156 2.628906 1.503906 2.789062 1.503906 2.980469 L 1.503906 15.757812 C 1.503906 15.953125 1.660156 16.109375 1.855469 16.109375 L 12.75 16.109375 C 12.945312 16.109375 13.105469 15.953125 13.105469 15.757812 C 13.105469 15.5625 12.945312 15.40625 12.75 15.40625 L 2.207031 15.40625 L 2.207031 6.339844 L 21.792969 6.339844 L 21.792969 7.867188 C 21.792969 8.0625 21.949219 8.21875 22.144531 8.21875 C 22.339844 8.21875 22.496094 8.0625 22.496094 7.867188 L 22.496094 2.980469 C 22.496094 2.789062 22.339844 2.628906 22.144531 2.628906 Z M 2.207031 5.636719 L 2.207031 3.335938 L 21.792969 3.335938 L 21.792969 5.636719 Z M 2.207031 5.636719"/>
    <path d="M18.386719 4.132812L7.117188 4.132812C6.921875 4.132812 6.761719 4.289062 6.761719 4.484375 6.761719 4.679688 6.921875 4.835938 7.117188 4.835938L18.386719 4.835938C18.582031 4.835938 18.738281 4.679688 18.738281 4.484375 18.738281 4.289062 18.582031 4.132812 18.386719 4.132812zM20.640625 4.132812L19.890625 4.132812C19.695312 4.132812 19.539062 4.289062 19.539062 4.484375 19.539062 4.679688 19.695312 4.835938 19.890625 4.835938L20.640625 4.835938C20.835938 4.835938 20.992188 4.679688 20.992188 4.484375 20.992188 4.289062 20.835938 4.132812 20.640625 4.132812zM3.359375 4.132812C3.265625 4.132812 3.175781 4.171875 3.109375 4.238281 3.042969 4.300781 3.007812 4.394531 3.007812 4.484375 3.007812 4.578125 3.042969 4.667969 3.109375 4.734375 3.175781 4.800781 3.265625 4.835938 3.359375 4.835938 3.449219 4.835938 3.542969 4.800781 3.605469 4.734375 3.671875 4.667969 3.710938 4.578125 3.710938 4.484375 3.710938 4.394531 3.671875 4.300781 3.605469 4.238281 3.542969 4.171875 3.449219 4.132812 3.359375 4.132812zM4.484375 4.132812C4.390625 4.132812 4.300781 4.171875 4.238281 4.238281 4.171875 4.300781 4.132812 4.390625 4.132812 4.484375 4.132812 4.578125 4.171875 4.667969 4.238281 4.734375 4.300781 4.800781 4.394531 4.835938 4.484375 4.835938 4.578125 4.835938 4.667969 4.800781 4.734375 4.734375 4.800781 4.667969 4.835938 4.578125 4.835938 4.484375 4.835938 4.390625 4.800781 4.300781 4.734375 4.238281 4.667969 4.171875 4.578125 4.132812 4.484375 4.132812zM5.613281 4.132812C5.519531 4.132812 5.429688 4.171875 5.363281 4.238281 5.296875 4.300781 5.261719 4.394531 5.261719 4.484375 5.261719 4.578125 5.296875 4.667969 5.363281 4.734375 5.429688 4.800781 5.519531 4.835938 5.613281 4.835938 5.707031 4.835938 5.796875 4.800781 5.863281 4.734375 5.925781 4.667969 5.964844 4.578125 5.964844 4.484375 5.964844 4.394531 5.925781 4.300781 5.863281 4.238281 5.796875 4.171875 5.707031 4.132812 5.613281 4.132812zM21.394531 9.019531L15.007812 9.019531C14.398438 9.019531 13.902344 9.511719 13.902344 10.121094L13.902344 21.769531C13.902344 22.378906 14.398438 22.871094 15.007812 22.871094L21.394531 22.871094C22 22.871094 22.496094 22.378906 22.496094 21.769531L22.496094 10.121094C22.496094 9.511719 22 9.019531 21.394531 9.019531zM14.605469 11.226562L21.792969 11.226562 21.792969 12.773438 14.605469 12.773438zM14.605469 13.480469L21.792969 13.480469 21.792969 20.664062 14.605469 20.664062zM15.007812 9.722656L21.394531 9.722656C21.613281 9.722656 21.792969 9.902344 21.792969 10.121094L21.792969 10.519531 14.605469 10.519531 14.605469 10.121094C14.605469 9.902344 14.785156 9.722656 15.007812 9.722656zM21.394531 22.167969L15.007812 22.167969C14.785156 22.167969 14.605469 21.988281 14.605469 21.769531L14.605469 21.371094 21.792969 21.371094 21.792969 21.769531C21.792969 21.988281 21.613281 22.167969 21.394531 22.167969zM21.394531 22.167969"/>
    <path d="M19.515625 11.648438L15.382812 11.648438C15.1875 11.648438 15.03125 11.804688 15.03125 12 15.03125 12.195312 15.1875 12.351562 15.382812 12.351562L19.515625 12.351562C19.710938 12.351562 19.867188 12.195312 19.867188 12 19.867188 11.804688 19.710938 11.648438 19.515625 11.648438zM21.019531 11.648438L20.640625 11.648438C20.449219 11.648438 20.289062 11.804688 20.289062 12 20.289062 12.195312 20.449219 12.351562 20.640625 12.351562L21.019531 12.351562C21.210938 12.351562 21.371094 12.195312 21.371094 12 21.371094 11.804688 21.210938 11.648438 21.019531 11.648438zM4.109375 7.515625C3.707031 7.515625 3.382812 7.839844 3.382812 8.242188L3.382812 13.128906C3.382812 13.527344 3.707031 13.855469 4.109375 13.855469L9.746094 13.855469C10.148438 13.855469 10.472656 13.527344 10.472656 13.128906L10.472656 8.242188C10.472656 7.839844 10.148438 7.515625 9.746094 7.515625zM7.460938 10.683594L9.769531 8.648438 9.769531 12.722656zM6.925781 10.214844L4.664062 8.21875 9.191406 8.21875zM4.085938 12.722656L4.085938 8.648438 6.394531 10.683594zM6.925781 11.15625L9.191406 13.152344 4.664062 13.152344zM12 8.21875L20.640625 8.21875C20.835938 8.21875 20.992188 8.0625 20.992188 7.867188 20.992188 7.671875 20.835938 7.515625 20.640625 7.515625L12 7.515625C11.804688 7.515625 11.648438 7.671875 11.648438 7.867188 11.648438 8.0625 11.804688 8.21875 12 8.21875zM12.75 9.394531L12 9.394531C11.804688 9.394531 11.648438 9.550781 11.648438 9.746094 11.648438 9.941406 11.804688 10.097656 12 10.097656L12.75 10.097656C12.945312 10.097656 13.105469 9.941406 13.105469 9.746094 13.105469 9.550781 12.945312 9.394531 12.75 9.394531zM12.75 11.273438L12 11.273438C11.804688 11.273438 11.648438 11.429688 11.648438 11.625 11.648438 11.820312 11.804688 11.976562 12 11.976562L12.75 11.976562C12.945312 11.976562 13.105469 11.820312 13.105469 11.625 13.105469 11.429688 12.945312 11.273438 12.75 11.273438zM12.75 13.152344L12 13.152344C11.804688 13.152344 11.648438 13.308594 11.648438 13.503906 11.648438 13.699219 11.804688 13.855469 12 13.855469L12.75 13.855469C12.945312 13.855469 13.105469 13.699219 13.105469 13.503906 13.105469 13.308594 12.945312 13.152344 12.75 13.152344zM20.265625 14.277344L16.132812 14.277344C15.730469 14.277344 15.40625 14.605469 15.40625 15.007812L15.40625 17.636719C15.40625 18.039062 15.730469 18.363281 16.132812 18.363281L20.265625 18.363281C20.667969 18.363281 20.992188 18.039062 20.992188 17.636719L20.992188 15.007812C20.992188 14.605469 20.667969 14.277344 20.265625 14.277344zM18.855469 16.320312L20.289062 15.410156 20.289062 17.234375zM18.199219 15.902344L16.753906 14.980469 19.648438 14.980469zM16.109375 17.234375L16.109375 15.410156 17.542969 16.320312zM18.199219 16.738281L19.648438 17.660156 16.753906 17.660156zM20.640625 19.164062L15.757812 19.164062C15.5625 19.164062 15.40625 19.320312 15.40625 19.515625 15.40625 19.710938 15.5625 19.867188 15.757812 19.867188L20.640625 19.867188C20.835938 19.867188 20.992188 19.710938 20.992188 19.515625 20.992188 19.320312 20.835938 19.164062 20.640625 19.164062zM20.640625 19.164062"/>
</svg>

<svg xmlns="http://www.w3.org/2000/svg" width="32" height="32" viewBox="0 0 24 24">
    <path d="M22.895 1.129H1.105C.496 1.129 0 1.62 0 2.23v14.278c0 .61.496 1.105 1.105 1.105h7.422l-.55 1.926H6.363a.35.35 0 0 0-.351.352.35.35 0 0 0 .351.351h6.387a.353.353 0 0 0 .355-.351.353.353 0 0 0-.355-.352H8.71l.552-1.926h3.488c.195 0 .355-.16.355-.351a.357.357 0 0 0-.355-.356H1.105a.398.398 0 0 1-.402-.398V2.23c0-.218.18-.398.402-.398h21.79c.222 0 .402.18.402.398v14.278a.35.35 0 0 0 .351.351.35.35 0 0 0 .352-.351V2.23c0-.609-.496-1.101-1.105-1.101zm0 0"/>
    <path d="M22.145 2.629H1.855a.353.353 0 0 0-.351.351v12.778a.35.35 0 0 0 .351.351H12.75a.353.353 0 0 0 .355-.351.353.353 0 0 0-.355-.352H2.207V6.34h19.586v1.527a.35.35 0 0 0 .352.352.35.35 0 0 0 .351-.352V2.98a.353.353 0 0 0-.351-.351zM2.207 5.637V3.336h19.586v2.3zm0 0"/>
    <path d="M18.387 4.133H7.117a.353.353 0 0 0-.355.351c0 .196.16.352.355.352h11.27a.35.35 0 0 0 .351-.352.35.35 0 0 0-.351-.351zm0 0M20.64 4.133h-.75a.35.35 0 0 0-.35.351.35.35 0 0 0 .35.352h.75a.35.35 0 0 0 .352-.352.35.35 0 0 0-.351-.351zm0 0M3.36 4.133a.355.355 0 0 0-.352.351c0 .094.035.184.101.25a.351.351 0 0 0 .25.102.355.355 0 0 0 .352-.352c0-.09-.04-.183-.106-.246a.346.346 0 0 0-.246-.105zm0 0M4.484 4.133a.34.34 0 0 0-.246.105.34.34 0 0 0-.105.246.355.355 0 0 0 .351.352.351.351 0 0 0 .25-.102.351.351 0 0 0 .102-.25.355.355 0 0 0-.352-.352zm0 0M5.613 4.133a.355.355 0 0 0-.351.351c0 .094.035.184.101.25a.351.351 0 0 0 .25.102.351.351 0 0 0 .25-.102.369.369 0 0 0 .102-.25.355.355 0 0 0-.352-.352zm0 0M21.395 9.02h-6.387c-.61 0-1.106.492-1.106 1.101V21.77c0 .609.496 1.101 1.106 1.101h6.387c.605 0 1.101-.492 1.101-1.101V10.12c0-.61-.496-1.101-1.101-1.101zm-6.79 2.207h7.188v1.546h-7.188zm0 2.253h7.188v7.184h-7.188zm.403-3.757h6.387a.4.4 0 0 1 .398.398v.399h-7.188v-.399c0-.219.18-.398.403-.398zm6.387 12.445h-6.387a.401.401 0 0 1-.403-.398v-.399h7.188v.399a.4.4 0 0 1-.398.398zm0 0"/>
    <path d="M19.516 11.648h-4.133a.35.35 0 0 0-.352.352.35.35 0 0 0 .352.352h4.133a.35.35 0 0 0 .351-.352.35.35 0 0 0-.351-.352zm0 0M21.02 11.648h-.38a.353.353 0 0 0-.35.352c0 .195.16.352.35.352h.38A.353.353 0 0 0 21.37 12a.353.353 0 0 0-.351-.352zm0 0M4.11 7.516a.725.725 0 0 0-.727.726v4.887c0 .398.324.726.726.726h5.637a.728.728 0 0 0 .727-.726V8.242a.725.725 0 0 0-.727-.726zm3.35 3.168l2.31-2.036v4.075zm-.534-.47L4.664 8.22h4.527zm-2.84 2.509V8.648l2.309 2.036zm2.84-1.567l2.265 1.996H4.664zm0 0M12 8.219h8.64a.35.35 0 0 0 .352-.352.35.35 0 0 0-.351-.351H12a.35.35 0 0 0-.352.351.35.35 0 0 0 .352.352zm0 0M12.75 9.395H12a.35.35 0 0 0-.352.351.35.35 0 0 0 .352.352h.75a.353.353 0 0 0 .355-.352.353.353 0 0 0-.355-.351zm0 0M12.75 11.273H12a.35.35 0 0 0-.352.352.35.35 0 0 0 .352.352h.75a.353.353 0 0 0 .355-.352.353.353 0 0 0-.355-.352zm0 0M12.75 13.152H12a.35.35 0 0 0-.352.352.35.35 0 0 0 .352.351h.75a.353.353 0 0 0 .355-.351.353.353 0 0 0-.355-.352zm0 0M20.266 14.277h-4.133a.729.729 0 0 0-.727.73v2.63c0 .402.324.726.727.726h4.133a.725.725 0 0 0 .726-.726v-2.63a.729.729 0 0 0-.726-.73zm-1.41 2.043l1.433-.91v1.824zm-.657-.418l-1.445-.922h2.894zm-2.09 1.332V15.41l1.434.91zm2.09-.496l1.45.922h-2.895zm0 0M20.64 19.164h-4.882a.35.35 0 0 0-.352.352.35.35 0 0 0 .352.351h4.883a.35.35 0 0 0 .351-.351.35.35 0 0 0-.351-.352zm0 0"/>
</svg>
